X:84
T:Duke of Glofter's March ThFife.84, The
B:Thompson, C. & Thompson, S., 'The Compleat Tutor for the Fife', London, c.1765-1780.
S:Digitised by National Library of Scotland at: https://archive.org/details/nlsmusic
Z:vmp Roger Hare, 2019.
M:C
%%score {1|2}
L:1/8
Q:1/4=100
K:G
V:1
%%MIDI program 73 % (standard instrument value - 1) - forces Flute
|: f>g | a>fd>d d3 f | e>dc>B A>GF>E | F>A d>=c B>ge>d | c2 A>A A2 f>g |
a>fd>d d3 f | e>dc>B A>GF>E | F>A d>=c B>ge>^c | d2 d>d d2 :|
|: f>g |a>ga>b =c'>ab>c' | g>fe>d g2 b>a | b>ag>f e>dc>B | c>dc>B A>GF>E |
F>Ad>A G>Be>B | c>ea>c d>fa>f | b>gb>g f>ed>c | d2 d>d d2 :|
V:2
%%MIDI program 72 % (standard instrument value - 1) - forces Flute
|: d>e | f>af>f f3 a | g2 e2 c2 A2 | D>FB>E G>ec>B | A2 F>F F2 d>e |
f>af>f f3 a | g2 e2 c2 A2 | D>FB>E G>ec>A | F2 F>F F2 :|
|: z2 |z2 f>g a>fg>a | g>fe>d e2 g2 | g2 e2 c>BA>G | A>BA>G F2 D2 |
A>cB>c B>GE>G | A>cf>e f2 d2 | g>eg>e d>cB>A | F2 F>F F2 :|

